!!!COM: Corelli, Arcangelo
!!!OPR: Sonata da chiesa
!!!OPS: 3
!!!ONM: 2
!!!OMV: 1
!!!OMD: Grave
**kern	**cdata-harm	**fb	**kern	**kern
*part3	*above	*part3	*part2	*part1
*staff3	*	*	*staff2	*staff1
*I"Violone & Organo	*	*	*I"Violino II	*I"Violino I
*clefF4	*	*	*clefG2	*clefG2
*k[f#c#]	*	*	*k[f#c#]	*k[f#c#]
*D:	*D:	*	*D:	*D:
*M4/4	*	*	*M4/4	*M4/4
*met(c)	*	*	*met(c)	*met(c)
*MM34	*	*	*MM34	*MM34
=1	=1	=1	=1	=1
8dL	D.I{	.	2r	1dd
8c#	.	.	.	.
8B	.	.	.	.
8AJ	.	.	.	.
8BL	vi	.	[2dd	.
8A	.	.	.	.
8G	.	.	.	.
8F#J	.	.	.	.
=2	=2	=2	=2	=2
8GL	ii65	6 5	4dd]	2ee
8E	.	.	.	.
8A	V	.	4cc#	.
8AAJ	.	.	.	.
8DL	I	.	4dd	2ff#
8E	.	.	.	.
8F#	I6	6	[4dd	.
8DJ	.	.	.	.
=3	=3	=3	=3	=3
8AL	V(4)	5 4	4dd]	2ee
8B	.	.	.	.
8c#	V.I6	6	4cc#	.
8AJ	.	.	.	.
4A	ii2	4 2	2b	2dd
4G#X	viio	5	.	.
=4	=4	=4	=4	=4
2A	I|IAC}	.	2e	2cc#
2r;	.	.	2r;	2r;
=5	=5	=5	=5	=5
8AL	I{	.	2r	1aa
8G#X	.	.	.	.
8F#	.	.	.	.
8EJ	.	.	.	.
8F#L	vi	.	[2aa	.
8E	.	.	.	.
8D	.	.	.	.
8C#J	.	.	.	.
=6	=6	=6	=6	=6
8DL	ii65	6 5	4aa]	2bb
8BB	.	.	.	.
8E	V	#	4gg#X	.
8EEJ	.	.	.	.
8AAL	I	.	4aa	2ccc#
8A	.	.	.	.
8c#	I6	6	[4aa	.
8AJ	.	.	.	.
=7	=7	=7	=7	=7
8eL	V(4)	5 4	4aa]	2bb
8E	.	.	.	.
8G#X	V/V.I6	6	4gg#X	.
8EJ	.	.	.	.
4E	ii2	4 2	2ff#	2aa
4D#X	viio	5	.	.
=8	=8	=8	=8	=8
2E	I|IAC}	#	2b	2gg#X
8EL	I.V/V{	.	2r	4.ee
8F#	.	.	.	.
8G#X	.	6	.	.
8EJ	V7/V	.	.	8dd
=9	=9	=9	=9	=9
8AL	V	.	4.aa	8cc#L
8B	.	.	.	8ddJ
8c#	V6	6	.	2ee
8AJ	.	.	8gg	.
8dL	I(9)	9	8ff#L	.
8D	.	.	8ggJ	.
8F#	I6	6	[4aa	8ddL
8DJ	.	.	.	8cc#J
=10	=10	=10	=10	=10
8GL	IV(9)	9	4aa]	8bL
8A	.	.	.	8cc#
8B	IV6	6	2gg	8dd
8GJ	.	.	.	8bJ
4A	V7	7	.	8cc#L
.	.	.	.	8aJ
8r	.	.	4ff#	[4dd
8B	vi	.	.	.
=11	=11	=11	=11	=11
8GL	ii65	6 5	2ee	4dd]
8EJ	.	.	.	.
8r	.	.	.	2cc#
8A	.	.	.	.
8F#L	IM65	6 5	2dd	.
8DJ	.	.	.	.
8r	.	.	.	[4b
8G	.	.	.	.
=12	=12	=12	=12	=12
8EL	ii%65/vi	6 5	2cc#	4b]
8C#	.	.	.	.
8F#	V/vi	#	.	4a#X
8FF#J	.	.	.	.
4BB	vi|PAC}{	.	4b	8bL
.	.	.	.	8cc#J
8r	.	.	4r	[4dd
8F#	I6	6	.	.
=13	=13	=13	=13	=13
8GL	ii65	6 5	2.ee	4dd]
8E	.	.	.	.
8A	V	3	.	4cc#
8AAJ	.	.	.	.
8DL	I(9)	9	.	[2ff#
8E	.	.	.	.
8F#	I6	6	8ddL	.
8DJ	.	.	8cc#J	.
=14	=14	=14	=14	=14
4.G	ii6(9)	7	4b	4ff#]
.	ii6	6	2gg	8eeL
8G	.	5	.	8ddJ
4.A	V7	7	.	8cc#L
.	.	.	.	8aJ
.	V(64)	6	8ff#L	[4aa
8A	.	5	8eeJ	.
=15	=15	=15	=15	=15
4.B	IV6(9)	7	8ddL	8aaL]
.	.	.	8bJ	8ddJ
.	IV6	6	4bb	2gg
8B	.	.	.	.
8c#L	V65	6 5	4.aa	.
8A	.	.	.	.
8d	I	.	.	4ff#
8DJ	.	.	8aa	.
=16	=16	=16	=16	=16
8GL	IV	.	8bbL	8bL
8A	.	.	8aa	8cc#J
8B	IV6	6	8gg	2dd
8F#J	I6	6	8ff#J	.
8GL	ii65	6 5	2ee	.
8E	.	.	.	.
8A	V	3	.	4cc#
8AAJ	.	.	.	.
=17	=17	=17	=17	=17
8DL	I|PAC}{	.	4dd	4.dd
8E	.	.	.	.
8F#	.	6	4.a	.
8DJ	V65/IV	-7	.	8ccn
4.G	IV(9)	9	.	4.b
.	.	.	8d	.
.	IV	8	[4g	.
8GG	ii6	6	.	8ee
=18	=18	=18	=18	=18
1AA	V7	7 3	4g]	8cc#XiL
.	.	.	.	8a
.	V(64)	6 4	4f#	8dd
.	.	.	.	8dJ
.	V(4)	5 3	2e	4.d
.	V(4)	4	.	.
.	V	.	.	8c#
=19	=19	=19	=19	=19
1DD	I|PAC}	.	1d	1d
==	==	==	==	==
*-	*-	*-	*-	*-
!!!system-decoration: [{s1,s2},s3]
!!!YEM: CC BY-NC-SA 4.0; CCARH; DCML
!!!RDF**kern: i = editorial accidental